X: 85
T:Sally Gardens
M:C|
L:1/8
R:Reel
K:G
DA|:~G2 DG B2 GB|dBeB dBAB|~d2 Bd egdB|AcBA GEDE|
|~G2 DG B2 GB|dBeB dBAB|~d2 Bd egdB|1 AcBA GEED:|2 AcBA G2|
|:Bc|dggf g2 de| ~g2 bg ageg|eaag a2 eg|~a2 bg ageg|
|dggf g2 de| ~g2 bg ageg|d2 Bd egdB|AcBA G2:|
% Output from ABC2Win  Version 2.1  on 3/24/97
